Adwaita++-Dark/actions/16/mail-reply.svg

<svg height="16" width="16" xmlns="http://www.w3.org/2000/svg">
  <path d="m7 1.5v2.5h2.5c3 0 5 2.13 5 5.25 0 3.25-4 4.75-4 4.75s1.87-2.65 1.44-4c-.37-1.13-1.58-2-2.94-2h-2v2.5l-6.5-4.5z" fill="#e6ddff"/>
</svg>

<svg xmlns="http://www.w3.org/2000/svg" width="16" height="16" version="1.1">
 <path style="fill:#E6DDFF" d="M 7,1.5 V 4 H 9.5 C 12.5,4 14.5,6.13 14.5,9.25 14.5,12.5 10.5,14 10.5,14 10.5,14 12.37,11.35 11.94,10 11.57,8.87 10.36,8 9,8 H 7 V 10.5 L 0.5,6 Z"/>
</svg>
